src/assets/filled/CloudSnow.svg

<svg width="24" height="24" viewBox="0 0 24 24"  xmlns="http://www.w3.org/2000/svg">
<path d="M20.17 17.5701C19.64 18.0601 19.03 18.4301 18.37 18.6801C17.71 18.9301 17 18.4501 17 17.7401V16.4201C17 14.4701 15.42 12.8901 13.47 12.8901H10.53C8.58 12.8901 7 14.4701 7 16.4201V18.0001C7 18.5501 6.55 19.0001 6 19.0001H5.55C3.1 18.6301 2 16.6401 2 14.8601C2 13.1801 2.98 11.3201 5.11 10.8001C4.52 8.47006 5.02 6.28006 6.54 4.69006C8.27 2.88006 11.03 2.16006 13.41 2.90006C15.6 3.57006 17.14 5.37006 17.69 7.87006C19.6 8.30006 21.13 9.74006 21.74 11.7401C22.4 13.9101 21.8 16.1401 20.17 17.5701Z" />
<path d="M13.47 14.39H10.53C9.26 14.39 8.5 15.15 8.5 16.42V19.36C8.5 20.63 9.26 21.39 10.53 21.39H13.47C14.74 21.39 15.5 20.63 15.5 19.36V16.42C15.5 15.15 14.74 14.39 13.47 14.39ZM10.5 17.63C10.08 17.63 9.75 17.29 9.75 16.88C9.75 16.47 10.08 16.13 10.5 16.13C10.92 16.13 11.25 16.47 11.25 16.88C11.25 17.29 10.91 17.63 10.5 17.63ZM12 19.88C11.59 19.88 11.25 19.54 11.25 19.13C11.25 18.72 11.59 18.38 12 18.38C12.41 18.38 12.75 18.72 12.75 19.13C12.75 19.54 12.42 19.88 12 19.88ZM13.51 17.63C13.09 17.63 12.76 17.29 12.76 16.88C12.76 16.47 13.09 16.13 13.51 16.13C13.93 16.13 14.26 16.47 14.26 16.88C14.26 17.29 13.92 17.63 13.51 17.63Z" />
</svg>

<?xml version="1.0" encoding="UTF-8"?>
<svg width="24" height="24" viewBox="0 0 24 24" xmlns="http://www.w3.org/2000/svg">
 <path d="m20.17 17.57c-0.53 0.49-1.14 0.86-1.8 1.11s-1.37-0.23-1.37-0.94v-1.32c0-1.95-1.58-3.53-3.53-3.53h-2.94c-1.95 0-3.53 1.58-3.53 3.53v1.58c0 0.55-0.45 1-1 1h-0.45c-2.45-0.37-3.55-2.36-3.55-4.14 0-1.68 0.98-3.54 3.11-4.06-0.59-2.33-0.09-4.52 1.43-6.11 1.73-1.81 4.49-2.53 6.87-1.79 2.19 0.67 3.73 2.47 4.28 4.97 1.91 0.43 3.44 1.87 4.05 3.87 0.66 2.17 0.06 4.4-1.57 5.83z"/>
 <path d="m13.47 14.39h-2.94c-1.27 0-2.03 0.76-2.03 2.03v2.94c0 1.27 0.76 2.03 2.03 2.03h2.94c1.27 0 2.03-0.76 2.03-2.03v-2.94c0-1.27-0.76-2.03-2.03-2.03zm-2.97 3.24c-0.42 0-0.75-0.34-0.75-0.75s0.33-0.75 0.75-0.75 0.75 0.34 0.75 0.75-0.34 0.75-0.75 0.75zm1.5 2.25c-0.41 0-0.75-0.34-0.75-0.75s0.34-0.75 0.75-0.75 0.75 0.34 0.75 0.75-0.33 0.75-0.75 0.75zm1.51-2.25c-0.42 0-0.75-0.34-0.75-0.75s0.33-0.75 0.75-0.75 0.75 0.34 0.75 0.75-0.34 0.75-0.75 0.75z"/>
</svg>
